X: 22
T: No_116_Fish_Dance_Song.krn
N: Derived from No_116_Fish_Dance_Song.krn
%%abc-version 2.0
%%abcx-abcm2ps-target-version 5.9.1 (29 Sep 2008)
%%abc-creator hum2abc beta
%%abcx-conversion-date 2019/03/15 08:35:44
%%humdrum-veritas 121569254
%%humdrum-veritas-data 397144851
%%linebreak <none>
%%barnumbers 0
L: 1/8
M: 2/4
K: B clef=bass
[K:clef=bass][M:2/4]CCC2 ]|:  
[M:3/4]B,B,B,2CB, | 
G,F,F,2B,B, | 
F,/F,3/ F, z G,F, | 
F,/F,3/ F, z G,F, | 
F,/F,3/ F, z G,F, ||  
[M:2/8]F,/F,3/ | 
F, z/ C/ ||  
[M:2/4]C2C2 :|]  



